src/symbolic/status/channel-insecure-symbolic.svg

<svg xmlns="http://www.w3.org/2000/svg" width="16" height="16"><path d="M8 1C5.784 1 4 2.784 4 5v3h1V5c0-1.662 1.338-3 3-3s3 1.338 3 3h1c0-2.216-1.784-4-4-4zM3 8v6h8V8z" fill="#444" opacity=".3"/><path class="warning" d="M12 6v4l.25 2h1.5l.25-2V6zm0 7v2h2v-2z" fill="#5294e2"/></svg>

<svg xmlns="http://www.w3.org/2000/svg" width="16" height="16" version="1.1">
 <path style="fill:#444444;opacity:0.3" d="M 8,1 C 5.784,1 4,2.784 4,5 V 8 H 5 V 5 C 5,3.338 6.338,2 8,2 9.662,2 11,3.338 11,5 H 12 C 12,2.784 10.216,1 8,1 Z M 3,8 V 14 H 11 V 8 Z"/>
 <path style="fill:#5294e2" class="warning" d="M 12,6 V 10 L 12.25,12 H 13.75 L 14,10 V 6 Z M 12,13 V 15 H 14 V 13 Z"/>
</svg>
